X:1
T:Verbum caro, panem verum
T:Giovanni Girolamo Kapsperger
T:Source : Libro primo di mottetti passeggiati a una voce---Roma---1612. Racolta del Sig.Francesco de Nobile Editor : André Vierendeels (28/10/15).
T:Notes : Original clefs : C1, F4 Editorial accidentals above the staff Note values have been halved in 3-beat measures 
T:Verbum caro, panem verum
C:Giovanni Girolamo Kapsperger
%%score 1 2
L:1/8
Q:1/4=80
M:4/4
K:C
V:1 treble nm="Soprano" snm="S"
V:2 bass nm="BC" snm="BC"
V:1
 d4 d4 | cBcA B/4^c/4d/c/d/ c/4c/4c/B/c/ | d2 G/A/B/c/ A/B/c/d/ B/c/d/G/ | %3
w: Ver- bum|ca- * * * * * * * * * * * * *|ro, pa- * * * * * * * * * * *|
 A/B/c/d/ e/f/g GA BA/B/ | c2 B/4c/4d/G A4 | G4 d4- | d2 d2 edec | d8 | d>e d>c B>A GA | %9
w: |* nem _ _ _ ve-|rum, ver-|* bo ca- * * *|ro,|pa- * * * * * * *|
 B/G/A/B/ c/B/A/G/ ^F/E/D/E/ F/D/E/F/ | G/A/B/^c/ d/B/c/d/ B/d/c/B/ Ac/B/ | A8 | %12
w: nem _ _ _ _ _ _ _ _ _ _ _ _ _ _ _|_ _ _ _ _ _ _ _ _ _ _ _ _ _ _|ve-|
 G2 E/^F/G/4A/4B/4c/4 d4- | d2 c2 B3 A | E2 ^F/G/A/4B/4c/4d/4 e3 A | A4 A4- | A4 E4 | %17
w: rum, ver- * * * * * *|* bo car- nem|ef- * * * * * * * fi-|cit: fit-|* que|
 ^F/G/A/B/ c/A/B/c/ d/c/B/A/ G/F/E/F/ | G/E/F/G/ A/E/ A2 A A2- |"^#" A2 G/F/E/D/ E4 | D8 | d6 ^F2 | %22
w: sa- * * * * * * * * * * * * * * *|* * * * * guis Chri- sti me-||rum,|et si|
 GE^FG AGAF | GABG AB c2- | c2 B2 A3 G | G8 | d2 ^c2 d2 A2 | B3 ^c d3 e | ^c2 d4 c2 | d4 d2 B2 | %30
w: sen- * * * * * * *||* sus de- fi-|cit,|et si sen- sus|de- * * *|* , fi-|cit, et si|
 d>c B>A G>F E>^F | G>A B>c d>B c2 | B2 G/A/B/c/ d/G/A/B/ c/B/c/A/4B/4 | c4 B4 | c8 | %35
w: sen- * * * * * * *|* * * * * * sus|de- * * * * * * * * * * * * *|* fi-|cit,|
[M:3/4] e4 B2 | c4 A2 | B4 ^c2 | d4 d2 | A4 E2 | ^F4 ^G2 |[M:4/4] A6 E2 | E8 | D8 | %44
w: ad fir-|man- dum|cor sin-|ce- rum,|ad fir-|man- dum|cor sin-|ce-|rum|
 z/ D/E/F/ G/A/B/^c/ d4- | d4 c4- | c4 B4 | cBcA B3 B | A8 | ^c4 d4 | B4 E/F/G/A/ B/c/d/G/ | %51
w: so- * * * * * * *|* la|_ fi-|des _ _ _ suf- fi-|cit,|so- la|fi- des _ _ _ _ _ _ _|
 A6 A2 | G8 | B4 c4 | d8 | G2 E/^F/G/F/ E/F/G/E/ F/G/A/E/ | ^F/G/A/B/ c/d/e/A/ B4 | A6 c/d/e/A/ | %58
w: suf- fi-|cit,|Al le|lu-|ia, Al- * * * * * * * * * * *|le- * * * * * * * lu-|ia, Al- * * *|
 B/c/d/G/ G/A/B/A/ B/A/B/A/ AA/G/ | A6 A/Bc/ | d6 c/B/c/d/ | e/d/c/B/ A/B/c/A/ d/c/B/A/ c/B/A/G/ | %62
w: le- * * * lu- * * * * * * * * * *|ia, Al- * *|le- * * * *||
 ^F/G/A/D/ E/F/G/A/ B/c/d/B/ c/A/B/G/ | A/G/A/B/ c/B/c/A/ B/c/d/B/ c/d/B/c/ | %64
w: ||
 d/e/d/c/ B/A/G/A/ B/G/A/B/ c/G/A/B/ | c/B/B/B/ B/B/A/G/ A4 | !fermata!G8 |] %67
w: |* * * * * * * * lu-|ia.|
V:2
 G,8 | A,8 | G,8- | G,8 | E,4 D,4 | G,,8 | G,4 C,4 | G,,4 D,2 E,2 | ^F,4 G,4 | E,4 D,4- | %10
 D,4 B,,3 C, | D,8 | G,,6 G,2 | ^F,4 G,2 D,2 | E,8 | D,8 | ^C,8 | D,4 B,,4- | B,,2 ^C,2 D,4 | %19
 ^F,,4 A,,4 | D,6 C,2 | B,,4 D,4 | E,4 D,4 | G,4 F,2 E,2 | D,8 | G,,8 | G,2 A,2 B,2 ^F,2 | %27
 G,3 ^F,/E,/ D,3 C,/B,,/ | A,,3 ^G,, A,,4 | D,8 | B,,4 C,4 | B,,6 A,,2 | E,8 | G,8 | C,8 | %35
[M:3/4] C4 G,2 | A,4 ^F,2 | G,4 E,2 | D,4 C,2 | D,4 ^C,2 | D,4 B,,2 |[M:4/4] A,,4 ^G,,4 | A,,8 | %43
 D,8 | D,8 | E,8 | ^F,4 G,4 | A,4 E,4 | A,,8 | A,4 ^F,4 | G,4 E,4 | D,8 | G,,8 | G,4 F,2 E,2 | %54
 D,8 | C,8- | C,4 E,4 | A,,4 A,4 | G,4 E,4 | D,6 C,2 | B,,4 A,,4 | A,,4 B,,2 C,2 | D,8- | D,8 | %64
 D,8- | D,8 | !fermata!G,,8 |] %67

